X: 39
T: The Night Before Larry Was Stretched
M: 9/8
L: 1/8
B: "O'Neill's 39"
N: "With spirit" "collected by J. O'Neill"
Z: "Transcribed by Norbert Paap, norbertp@bdu.uva.nl"
K:Gm
d/2-c/2 | B>AG GDG G2 B | A>GF FCF ABc | B>AG GDG G2 B | A>Bc cdB AGF ||
B>cd ded f2 d | B>cd d=ef _ecA | B>cd ded d2 d | edc cdB ABc | BAG AG^F G2 ||


